X: 17418
T: Highland Boat Song
R: waltz
M: 3/4
K: Aminor
E2|A3 E A2|c3 B c2|e3 c e2|a4 g2|e3 d c2|B3 c d2|e3 d c2|B2 BA G2|
A3 E A2|c3 B c2|e3 c e2|a4 g2|e3 d c2|B3 A G2|A3 B A2|A4:|
z2|g3 a g2|e3 d e2|g3 a g2|e3 d e2|a3 b a2|e3 de2|a3 bag|e d3 B2|
A3 E A2|c3 B c2|e3 c e2|a4 g2|e3 d c2|B3 A G2|A3 B A2|A4:|

